src/icons/log-out.svg

<svg xmlns="http://www.w3.org/2000/svg" width="512" height="512" viewBox="0 0 512 512">
    <path d="M255.8 89.5c54.4 0 102.4 27.1 131.3 68.5H358c-1.7-1.9-3.4-3.7-5.2-5.5-25.9-25.9-60.4-40.2-97-40.2-36.7 0-71.1 14.3-97 40.2-25.9 25.9-40 60.4-40 97 0 36.7 14.1 71.1 40 97 25.9 25.9 60.4 40.2 97 40.2 36.7 0 71.1-14.3 97-40.2 1.8-1.8 3.5-3.7 5.2-5.6h29.1c-28.9 41.5-76.9 68.6-131.3 68.6-88.4 0-159.8-71.6-159.8-160s71.4-160 159.8-160zm95.6 95.3l64.6 64.7-64.6 64.7-16.2-16.2 37.1-37h-162v-22.9h162L335.2 201l16.2-16.2z"/>
</svg>

<?xml version="1.0" encoding="UTF-8"?>
<svg width="512px" height="512px" viewBox="0 0 512 512" version="1.1" xmlns="http://www.w3.org/2000/svg" xmlns:xlink="http://www.w3.org/1999/xlink">
    <!-- Generator: Sketch 62 (91390) - https://sketch.com -->
    <title>log-out</title>
    <desc>Created with Sketch.</desc>
    <g id="log-out" stroke="none" stroke-width="1" fill="none" fill-rule="evenodd">
        <path d="M255.8,89.5 C310.2,89.5 358.2,116.6 387.1,158 L387.1,158 L358,158 C356.3,156.1 354.6,154.3 352.8,152.5 C326.9,126.6 292.4,112.3 255.8,112.3 C219.1,112.3 184.7,126.6 158.8,152.5 C132.9,178.4 118.8,212.9 118.8,249.5 C118.8,286.2 132.9,320.6 158.8,346.5 C184.7,372.4 219.2,386.7 255.8,386.7 C292.5,386.7 326.9,372.4 352.8,346.5 C354.6,344.7 356.3,342.8 358,340.9 L358,340.9 L387.1,340.9 C358.2,382.4 310.2,409.5 255.8,409.5 C167.4,409.5 96,337.9 96,249.5 C96,161.1 167.4,89.5 255.8,89.5 Z M351.4,184.8 L416,249.5 L351.4,314.2 L335.2,298 L372.3,261 L210.3,261 L210.3,238.1 L372.3,238.1 L335.2,201 L351.4,184.8 Z" id="Combined-Shape" fill="#000000" fill-rule="nonzero"></path>
    </g>
</svg>
